source/img/services/services-nav/strategy-icon.svg

<svg width="33" height="33" viewBox="0 0 33 33" fill="none" xmlns="http://www.w3.org/2000/svg">
<path d="M15.8439 17.6041C15.8439 19.2254 14.5296 20.5397 12.9083 20.5397C11.287 20.5397 9.97266 19.2254 9.97266 17.6041C9.97266 15.9828 11.287 14.6685 12.9083 14.6685C14.5296 14.6685 15.8439 15.9828 15.8439 17.6041Z" fill="#AAAAAA"/>
<path d="M22.2482 17.6043C22.2482 22.763 18.0662 26.945 12.9075 26.945C7.74884 26.945 3.56689 22.763 3.56689 17.6043C3.56689 12.4456 7.74884 8.26367 12.9075 8.26367C18.0662 8.26367 22.2482 12.4456 22.2482 17.6043ZM5.71524 17.6043C5.71524 21.5765 8.93534 24.7966 12.9075 24.7966C16.8797 24.7966 20.0998 21.5765 20.0998 17.6043C20.0998 13.6321 16.8797 10.412 12.9075 10.412C8.93534 10.412 5.71524 13.6321 5.71524 17.6043Z" fill="#AAAAAA"/>
<path fill-rule="evenodd" clip-rule="evenodd" d="M12.908 8.66391C7.97034 8.66391 3.96762 12.6666 3.96762 17.6042C3.96762 22.5419 7.97034 26.5446 12.908 26.5446C17.8456 26.5446 21.8483 22.5419 21.8483 17.6042C21.8483 14.1398 19.8779 11.135 16.9947 9.65043C16.7981 9.54923 16.7208 9.30784 16.8221 9.11127C16.9233 8.91471 17.1647 8.83741 17.3612 8.93862C20.5005 10.555 22.6489 13.8284 22.6489 17.6042C22.6489 22.984 18.2877 27.3452 12.908 27.3452C7.52817 27.3452 3.16699 22.984 3.16699 17.6042C3.16699 12.2245 7.52817 7.86328 12.908 7.86328C13.129 7.86328 13.3083 8.04251 13.3083 8.26359C13.3083 8.48468 13.129 8.66391 12.908 8.66391Z" fill="#0A3D76"/>
<path fill-rule="evenodd" clip-rule="evenodd" d="M12.9082 24.4098C9.14972 24.4098 6.10287 21.363 6.10287 17.6045C6.10287 13.846 9.14972 10.7992 12.9082 10.7992C16.6667 10.7992 19.7135 13.846 19.7135 17.6045C19.7135 20.2414 18.2138 22.5288 16.019 23.6589C15.8224 23.7601 15.7451 24.0015 15.8463 24.1981C15.9475 24.3947 16.1889 24.472 16.3855 24.3707C18.8364 23.1088 20.5142 20.5529 20.5142 17.6045C20.5142 13.4038 17.1089 9.99854 12.9082 9.99854C8.70755 9.99854 5.30225 13.4038 5.30225 17.6045C5.30225 21.8051 8.70755 25.2104 12.9082 25.2104C13.1293 25.2104 13.3085 25.0312 13.3085 24.8101C13.3085 24.589 13.1293 24.4098 12.9082 24.4098Z" fill="#0A3D76"/>
<path fill-rule="evenodd" clip-rule="evenodd" d="M8.43508 16.4065C9.09696 13.9364 11.636 12.4705 14.1061 13.1324C16.5763 13.7942 18.0422 16.3332 17.3803 18.8034C16.7184 21.2735 14.1794 22.7394 11.7093 22.0776C9.97637 21.6132 8.73702 20.225 8.38072 18.5831C8.33383 18.3671 8.12068 18.2299 7.90462 18.2768C7.68856 18.3237 7.55142 18.5368 7.5983 18.7529C8.01569 20.6763 9.46832 22.306 11.502 22.8509C14.3993 23.6272 17.3773 21.9079 18.1536 19.0106C18.9299 16.1134 17.2106 13.1353 14.3133 12.359C11.4161 11.5827 8.43805 13.3021 7.66174 16.1993C7.60451 16.4129 7.73125 16.6324 7.9448 16.6896C8.15835 16.7468 8.37786 16.6201 8.43508 16.4065Z" fill="#0A3D76"/>
<path fill-rule="evenodd" clip-rule="evenodd" d="M15.3631 16.9468C14.9998 15.5911 13.6063 14.7865 12.2506 15.1498C10.8948 15.5131 10.0903 16.9066 10.4535 18.2623C10.8168 19.6181 12.2103 20.4226 13.5661 20.0594C14.5169 19.8046 15.1974 19.0429 15.393 18.1413C15.4399 17.9252 15.6531 17.7881 15.8691 17.835C16.0852 17.8819 16.2223 18.095 16.1754 18.3111C15.9187 19.4942 15.025 20.4973 13.7733 20.8327C11.9905 21.3104 10.1579 20.2524 9.6802 18.4696C9.20248 16.6867 10.2605 14.8542 12.0434 14.3764C13.8262 13.8987 15.6587 14.9568 16.1365 16.7396C16.1937 16.9532 16.0669 17.1727 15.8534 17.2299C15.6398 17.2871 15.4203 17.1604 15.3631 16.9468Z" fill="#0A3D76"/>
<path fill-rule="evenodd" clip-rule="evenodd" d="M15.1623 17.7226C15.1792 17.5022 15.0141 17.3098 14.7937 17.2929L14.2152 17.2486L25.3486 10.8208L26.9561 11.0144C27.1756 11.0409 27.3749 10.8844 27.4014 10.6649C27.4278 10.4454 27.2713 10.246 27.0518 10.2196L26.5042 10.1536L26.7145 10.0321L28.322 10.2258C28.5415 10.2522 28.7409 10.0957 28.7674 9.87623C28.7938 9.65673 28.6373 9.45735 28.4178 9.43091L27.8702 9.36493L28.0805 9.24346L29.688 9.43714C29.9075 9.46358 30.1069 9.30708 30.1334 9.08758C30.1598 8.86808 30.0033 8.6687 29.7838 8.64226L28.5737 8.49647L29.0525 7.37563C29.1394 7.17232 29.0449 6.93709 28.8416 6.85025C28.6383 6.7634 28.4031 6.85781 28.3162 7.06113L27.6802 8.5501L27.4698 8.67156L27.6865 8.16428C27.7734 7.96097 27.679 7.72575 27.4756 7.6389C27.2723 7.55205 27.0371 7.64647 26.9503 7.84978L26.3142 9.33875L26.1039 9.46021L26.3205 8.95294C26.4074 8.74962 26.313 8.5144 26.1097 8.42755C25.9063 8.3407 25.6711 8.43512 25.5843 8.63843L24.9482 10.1274L13.8065 16.5601L14.0683 16.0083C14.1631 15.8085 14.078 15.5698 13.8783 15.475C13.6785 15.3803 13.4398 15.4654 13.345 15.6651L12.5325 17.3775C12.476 17.4966 12.4818 17.6359 12.5479 17.7499C12.6141 17.864 12.7322 17.9381 12.8637 17.9482L14.7326 18.0912C14.953 18.1081 15.1454 17.943 15.1623 17.7226Z" fill="#0A3D76"/>
</svg>

<svg width="33" height="33" fill="none" xmlns="http://www.w3.org/2000/svg"><path d="M15.844 17.604a2.936 2.936 0 11-5.871 0 2.936 2.936 0 015.87 0z" fill="#AAA"/><path d="M22.248 17.604a9.34 9.34 0 11-18.681 0 9.34 9.34 0 0118.681 0zm-16.533 0a7.192 7.192 0 1014.385 0 7.192 7.192 0 00-14.385 0z" fill="#AAA"/><path fill-rule="evenodd" clip-rule="evenodd" d="M12.908 8.664a8.94 8.94 0 104.087.986.4.4 0 11.366-.711 9.74 9.74 0 015.288 8.665c0 5.38-4.361 9.741-9.741 9.741s-9.741-4.361-9.741-9.74c0-5.38 4.361-9.742 9.741-9.742a.4.4 0 010 .8z" fill="#0A3D76"/><path fill-rule="evenodd" clip-rule="evenodd" d="M12.908 24.41a6.805 6.805 0 113.111-.751.4.4 0 10.367.712 7.606 7.606 0 10-3.477.84.4.4 0 100-.801z" fill="#0A3D76"/><path fill-rule="evenodd" clip-rule="evenodd" d="M8.435 16.407a4.63 4.63 0 11-.054 2.176.4.4 0 00-.783.17 5.431 5.431 0 10.063-2.554.4.4 0 10.774.208z" fill="#0A3D76"/><path fill-rule="evenodd" clip-rule="evenodd" d="M15.363 16.947a2.541 2.541 0 10.03 1.194.4.4 0 11.782.17 3.342 3.342 0 11-.038-1.571.4.4 0 01-.774.207z" fill="#0A3D76"/><path fill-rule="evenodd" clip-rule="evenodd" d="M15.162 17.723a.4.4 0 00-.368-.43l-.579-.044L25.35 10.82l1.607.193a.4.4 0 10.096-.794l-.548-.066.21-.122 1.608.194a.4.4 0 00.096-.795l-.548-.066.21-.122 1.608.194a.4.4 0 00.096-.795l-1.21-.146.478-1.12a.4.4 0 10-.736-.315l-.636 1.49-.21.12.216-.507a.4.4 0 10-.736-.314l-.636 1.489-.21.121.216-.507a.4.4 0 10-.736-.315l-.636 1.49-11.142 6.432.262-.552a.4.4 0 10-.723-.343l-.813 1.713a.4.4 0 00.332.57l1.869.143a.4.4 0 00.43-.368z" fill="#0A3D76"/></svg>
